X: 181
T: St. Joseph's Reel
C: R-94
C: French Canadian
M: C|
Z: Transcribed to abc by Mary Lou Knack
R: reel
K: D
K: D
|: "D"defd "A7"cdec | "D"defd A2dc | "G"B2gf edcB | "A7"Aa2a agfe | "D"defd "A7"cdec |
| "D"defd A2ef | "G" g2gf edcB | "A7"Afec "D"d4 :: "D"f2fg fedc | "G"Bg2g g4 |
| "A7"e2ef edcB | Aa2a agfe | "D"f2fg fedc | "G"Bg2g g4 | "A7"e2ef edcB | Afec "D"d4 |]
